X:1
T:Bourree
T:Bourrée in E Minor
T:from the Lute Suite in E minor, BWV 996
T:J.S. Bach (1685-1750) Arrangement by Paul Horn 
T:This work is Public Domain, it is free to record, repost (score, video etc.), and distribute as you see fit. Attribution is appreciated, but not required. Please visit my website at http://www.paulyguitar.blogspot.com • Please consider supporting my work at http://www.patreon.com/paulbrookshorniii
C:Johann Sebastian Bach
Z:This work is Public Domain, it is free to record, repost (score, video etc.), and distribute as you see fit. Attribution is appreciated, but not required.
Z:Please visit my website at http://www.paulyguitar.blogspot.com • Please consider supporting my work at http://www.patreon.com/paulbrookshorniii
%%score ( 1 2 )
L:1/8
Q:1/4=120
M:4/4
K:G
V:1 treble-8 nm="Classical Guitar" snm="Guit."
V:2 treble-8 
V:1
"^Allegro-139" !0!e"^II"f | !3!g2 !2!fe !4!^d2 e!1!f | B2"^II" ^c^d e2 !4!=d!1!=c | %3
 B2 !2!AG !4!F2 G!2!A | B!2!A G!4!F !2!E2 e"^II"f | !3!g2 !2!fe !4!^d2 e!1!f | %6
 B2"^II" ^c^d e2 !4!=d!1!=c | B2 !1!AG !2!F3 G | G6 :: BG | !4!d2 !2!A!1!c B2 !4!g!3!d | %11
 e2 !3!B!1!d !1!c2 B!3!A | !1!^G2 !3!AB !1!c2 B!2!A | A6 !4!d!2!A | B2 !4!g!3!d e2 !3!B!1!d | %15
 !3!c2 !4!a!3!e !3!f2 !3!^ce | !3!d2 !2!^cB P!2!^A3 B | B6 !4!b!3!f | %18
 !4!^g2 !2!fe !4!a2 !3!e!1!=g | !1!f2 e!3!d !4!g2"^III" !1!d!4!=f | %20
 !3!e2 !4!a!0!e !2!f2"^II" !1!^c!4!e | !3!^d2 B4 eB | !2!c2 !2!d!1!A B2 !2!cG | %23
"^II" !1!A2 B!1!F G2 !4!F!2!E | !1!^D2 !2!E!4!F G2 !4!F!2!E |"^SDG" !2!E6 :| %26
V:2
 !2!G,F, | E,2 A,2 !1!B,2 A,2 | !2!G,2 F,2 E,2 !2!F,2 | !2!G,2 A,2 !1!B,2 A,2 | %4
 !3!G,2 !1!B,2 E,!1!F, !3!G,F, | E,2 A,2 !1!B,2 A,2 | !2!G,2 F,2 E,2 !2!F,2 | %7
 !2!G,2 !3!C2 !3!D2 D2 | !3!!2![G,B,D]6 :: !3!G,2 | !1!F,2 D2 !3!G,2 !1!B,2 | %11
 !1!C2 !2!^G,2 A,2 D2 | !2!E2 A,2 !2!E2 E,2 | A,!1!B, A,!3!=G, !1!F,2 D2 | %14
 !3!G,2 !1!B,2 !1!C2 !2!^G,2 | A,2 !1!^C2 !1!D2 !1!^A,2 | !1!B,2 !1!E2 !3!F2 !1!F,2 | %17
 !2!B,!1!^A, !2!B,!4!^C !1!^D2 !2!B,2 | !1!E2 D2 !1!^C2 A,2 | D2 !2!C2 !1!B,2 !1!G,2 | %20
 !1!C2 !1!B,2 A,2 !1!F,2 | !1!B,3 !2!C !1!B,A, !4!^G,2 | A,!3!E !3!F2 !3!G,!1!^D !3!E2 | %23
 !1!F,!3!^C !3!^D2 E,2 A,2 | !2!B,2 A,2 !1!B,4 | E,6 :| %26

